web/packages/design/src/ResourceIcon/assets/quickbooks.svg

<svg width="72" height="72" viewBox="0 0 72 72" fill="none" xmlns="http://www.w3.org/2000/svg">
<g clip-path="url(#clip0_16965_14127)">
<path d="M36.0001 72.002C55.8821 72.002 72 55.8842 72 36.002C72 16.1197 55.8821 0.00195312 36.0001 0.00195312C16.1177 0.00195312 0 16.1197 0 36.002C0 55.8842 16.1177 72.002 36.0001 72.002Z" fill="#2CA01C"/>
<path d="M24 21.9314C16.264 21.9314 10 28.1835 10 35.887C10 43.5984 16.264 49.8426 24 49.8426H26V44.6591H24C19.144 44.6591 15.2 40.7276 15.2 35.887C15.2 31.0464 19.144 27.1149 24 27.1149H28.808V54.2286C28.808 57.0915 31.1359 59.4121 34.008 59.4121V21.9314H24ZM48.0071 49.8431C55.7433 49.8431 62.0071 43.5907 62.0071 35.8875C62.0071 28.1761 55.7433 21.9318 48.0071 21.9318H46.0073V27.1152H48.0071C52.8632 27.1152 56.8071 31.0469 56.8071 35.8875C56.8071 40.7281 52.8632 44.6593 48.0071 44.6593H43.1992V17.5459C43.1992 14.6829 40.8714 12.3623 37.9992 12.3623V49.8431H48.0071Z" fill="white"/>
</g>
<defs>
<clipPath id="clip0_16965_14127">
<rect width="72" height="72" fill="white" transform="translate(0 0.00195312)"/>
</clipPath>
</defs>
</svg>

<svg xmlns="http://www.w3.org/2000/svg" width="72" height="72" fill="none" viewBox="0 0 72 72"><g clip-path="url(#a)"><path fill="#2ca01c" d="M36 72.002c19.882 0 36-16.118 36-36s-16.118-36-36-36-36 16.118-36 36 16.118 36 36 36"/><path fill="#fff" d="M24 21.931c-7.736 0-14 6.252-14 13.956 0 7.711 6.264 13.956 14 13.956h2v-5.184h-2c-4.856 0-8.8-3.931-8.8-8.772 0-4.84 3.944-8.772 8.8-8.772h4.808v27.114c0 2.863 2.328 5.183 5.2 5.183v-37.48zm24.007 27.912c7.736 0 14-6.252 14-13.955 0-7.712-6.264-13.956-14-13.956h-2v5.183h2c4.856 0 8.8 3.932 8.8 8.773s-3.944 8.771-8.8 8.771H43.2V17.546c0-2.863-2.328-5.184-5.2-5.184v37.481z"/></g><defs><clipPath id="a"><path fill="#fff" d="M0 .002h72v72H0z"/></clipPath></defs></svg>
